X:2
T:2019 Competition Set
C:Traditional
R:March
M:4/4
L:1/8
Q:1/4=56
K:D
T:Mrs. MacLeod Of Raasay
{/gAGAG}A2{/ag}a3/2g/2 {/fg}f1e1 {/g}f1a1|{/fg}f1e1 {/gcd}c1{/e}B1 {/g}c2{/GdGe}c1e1|{/gAGAG}A2{/ag}a3/2g/2 {/fg}f1e1 {/g}f1a1|{/fg}f1e1 {/gcd}c1{/e}A1 {/g}B2{/GdGe}B1e1|!
{/gAGAG}A2{/ag}a3/2g/2 {/fg}f1e1 {/g}f1a1|{/fg}f1e1 {/gcd}c1{/e}B1 {/g}c2{/GdGe}c1e1|{/gfg}f3/2e/2 {/g}f1a1{/fg}f2{/g}e1{/g}f3/4g/4|{/ag}a3/2f/2 {/gef}e1c1 {/gcd}c1{/e}B1 {/GdG}B1e1||!
{/gAGAG}A2{/gcd}c1{/e}A1 {/gef}e1A1 {/gcd}c1a1|{/gfg}f1e1 {/gcd}c1{/e}B1{/g}c2{/GdGe}c1e1|{/gAGAG}A2 {/gcd}c1{/e}A1 {/gef}e1A1 {/gcd}c1a1|{/fg}f1e1 {/gcd}c1{/e}A1 {/g}B2{/GdGe}B1e1|!
{/gAGAG}A2{/gcd}c1{/e}A1 {/gef}e1A1 {/gcd}c1a1|{/gfg}f1e1 {/gcd}c1{/e}B1{/g}c2{/GdGe}c1e1|{/gfg}f3/2e/2 {/g}f1a1 {/fg}f2{/g}e1{/g}f3/4g/4|{/ag}a3/2f/2 {/gef}e1c1 {/gcd}c1{/e}B1 {/GdG}B|]!
T:The Piper's Cave
M:2/4
|:{/gce} c/>B/ |{/g} A2{/GAG} A>B |{/GdG} cf{/e} fa/>f/ | {/gef} ec{/gce} c{/g}B/4{/d}A3/4 |!
{/gce} c{/g}B{/GdGe} B{/gce}c/>B/ |{/g} A2{/GAG} A>B | {/GdG} cf{/e} fa/>f/ |{/gef} e>c{/g} B{/gce}c/>B/ |{/g} A2{/GAG} A :|!
{/gf} g | {/ag} af{/gfg} f{/g}e/>f/ |{/ag} ac{/GdG} ca/>f/ |{/gef} ec{/gce} c{/g}B/4{/d}A3/4 | {/gce} c{/g}B{/GdGe} B{/gf}g |!
{/ag} af{/gfg} f{/g}e/>f/ |{/ag} ac{/GdG} ca/>f/ | {/gef} e>c{/g} B{/gce}c/>B/ |{/g} A2{/GAG} A{/gf}g |!
{/ag} af{/gfg} f{/g}e/>f/ | {/ag} ac{/GdG} ca/>f/ |{/gef} ec{/gce} c{/g}B/4{/d}A3/4 |{/gce} c{/g}B{/GdGe} B{/gce}c/>B/ |!
{/g} A2{/GAG} A>B |{/GdG} cf{/e} fa/>f/ |{/gef} e>c{/g} B{/gce}c/>B/ |{/g} A2{/GAG} A |]!
T:Walter Douglas, MBE
M:2/4
|: e |{/g} A2{/GdGe} A{/gf}g |{/ef} ed{/g} e>f |{/gf} g>e{/Gdc} dg | {/Bd} B{/e}A{/gBd} B{/e}G |!
{/g} A2{/GdGe} A{/gf}g |{/ef} ed{/g} e>f |{/gf} g>e{/Gdc} d{/e}B | {/gef} e{/g}A{/GAG} A :|!
|:{/ag} a | e>f{/gf} ga | {/ef} ed{/g} e>f |{/gf} g>e{/Gdc} dg | {/Bd} B{/e}A{/gBd} B{/e}G |!
|1{/g} e>f{/gf} ga |{/ef} ed{/g} e>f | {/gf} g>e{/Gdc} d{/e}B | {/gef} e{/g}A{/GAG} A :|!
|2{/g} A2{/GdGe} A{/gf}g |{/ef} ed{/g} e>f |{/gf} g>e{/Gdc} d{/e}B | {/gef} e{/g}A{/GAG} A |]!

